X:1
T:Title
%%score ( 1 2 ) { ( 3 5 ) | 4 }
L:1/8
Q:1/4=115
M:4/4
K:A
V:1 treble nm="Grand Piano, Unnamed-000"
V:2 treble 
V:3 bass nm="Choir Pad, Ellacombe, CMD"
V:5 bass 
V:4 bass 
V:1
 E2 A2 GF E2 | [EA]2 C2 D-[A,D] [B,E]2 | [CE]2 FG [EA]2 [FB]2 | [EB]2 [Ec]6 | E2 A2 GF E2 | %5
w: By~Gesangbuch~der~H.~W.~k~Hofkapelle,~1784 * * * *|||||
 [EA]2 C2 B,A, [B,E]2 | [CE]2 FG A-[DA] [EA]2 | [EG]2 [EA]6 | [CA][DB] [Ec]2 [EB]2 [Ec]2 | %9
w: ||||
 [Fd]2 B2 GA [EB]2 | A[EB] [Ec]2 [EB]2 [Ec]2 | [Fd]2 [EB]6 | E2 A2 GF E2 | [EA]2 C2 B,A, [B,E]2 | %14
w: |||||
 [CE]2 FG A-[DA] [EA]2 | [EG]2 [EA]6- | [EA]2 z2 z4 |] %17
w: |||
V:2
 x8 | z4 .B,2 z2 | z2 D2 z4 | x8 | x8 | z4 D2 z2 | z2 D2 .C2 z2 | x8 | x8 | z2 E4 z2 | x8 | x8 | %12
 x8 | z4 D2 z2 | z2 D2 .C2 z2 | x8 | x8 |] %17
V:3
 E,2 A,2 G,F, E,2 | A,2 A,4 G,2 | A,2 A,2 A,2 A,2 | G,2 A,6 | E,2 A,2 G,F, E,2 | A,2 A,4 G,2 | %6
 A,2 A,2 A,2 A,2 | B,2 C6 | A,2 A,2 B,2 A,2 | A,2 G,2 z F, G,2 | CB, A,2 B,2 A,2 | A,2 G,6 | %12
 E,2 A,2 G,F, E,2 | A,2 A,4 G,2 | A,2 A,2 A,2 B,2 | B,2[K:treble] C6- | C2 z2 z4 |] %17
V:4
 z8 | C,2 F,4 E,2 | A,,2 D,2 C,2 D,2 | E,2 A,,6 | z8 | C,2 F,4 E,2 | A,,2 D,2 F,2 E,2 | E,2 A,,6 | %8
 A,,2 z2 G,2 z2 | D,2 E,2 z2 E,2 | F,G, z2 G,2 z2 | D,2 E,6 | z8 | C,2 F,4 E,2 | A,,2 D,2 F,2 E,2 | %15
 E,2 A,,6- | A,,2 z2 z4 |] %17
V:5
 x8 | x8 | x8 | x8 | x8 | x8 | x8 | x8 | x8 | z4 E,2 z2 | x8 | x8 | x8 | x8 | x8 | %15
 x2[K:treble] x6 | x8 |] %17

